src/img/footer-social/viber.svg

<svg width="32" height="32" viewBox="0 0 32 32" fill="none" xmlns="http://www.w3.org/2000/svg">
<path d="M29 0H3C1.34315 0 0 1.34315 0 3V29C0 30.6569 1.34315 32 3 32H29C30.6569 32 32 30.6569 32 29V3C32 1.34315 30.6569 0 29 0Z" fill="#7D3DAF"/>
<path d="M26.12 10.315L26.1136 10.2897C25.6025 8.22319 23.2979 6.00575 21.1816 5.54442L21.1577 5.53951C17.7347 4.88649 14.2638 4.88649 10.8415 5.53951L10.8169 5.54442C8.70125 6.00575 6.39674 8.22319 5.88485 10.2897L5.87924 10.315C5.24729 13.2009 5.24729 16.1275 5.87924 19.0134L5.88485 19.0387C6.3749 21.017 8.50781 23.1326 10.5451 23.7144V26.0211C10.5451 26.856 11.5626 27.2661 12.1412 26.6636L14.4783 24.2342C14.9852 24.2626 15.4924 24.2783 15.9996 24.2783C17.7227 24.2783 19.4465 24.1154 21.1577 23.7889L21.1816 23.784C23.2979 23.3227 25.6025 21.1052 26.1136 19.0388L26.12 19.0135C26.7519 16.1275 26.7519 13.2009 26.12 10.315ZM24.2704 18.5949C23.9292 19.9431 22.1794 21.6192 20.7891 21.9288C18.969 22.2749 17.1345 22.4229 15.3018 22.3721C15.2654 22.3711 15.2304 22.3852 15.2049 22.4114C14.9449 22.6783 13.4985 24.1631 13.4985 24.1631L11.6834 26.026C11.5507 26.1643 11.3175 26.0702 11.3175 25.8792V22.0579C11.3175 21.9948 11.2725 21.9411 11.2105 21.929C11.2101 21.9289 11.2098 21.9288 11.2094 21.9288C9.81911 21.6191 8.07 19.943 7.72805 18.5949C7.15929 15.9863 7.15929 13.3419 7.72805 10.7334C8.07 9.38521 9.81911 7.70914 11.2094 7.39948C14.3881 6.79491 17.6111 6.79491 20.7891 7.39948C22.1801 7.70914 23.9292 9.38521 24.2704 10.7334C24.8398 13.342 24.8398 15.9864 24.2704 18.5949Z" fill="white"/>
<path d="M19.0235 20.3589C18.8098 20.294 18.6061 20.2504 18.4169 20.1719C16.4568 19.3586 14.6528 18.3094 13.2238 16.7011C12.4111 15.7866 11.7751 14.754 11.2375 13.6613C10.9825 13.1431 10.7677 12.6046 10.5486 12.0696C10.3489 11.5818 10.6431 11.0777 10.9528 10.7102C11.2434 10.3652 11.6174 10.1012 12.0224 9.90659C12.3385 9.75472 12.6504 9.84228 12.8812 10.1102C13.3804 10.6895 13.8388 11.2984 14.21 11.9699C14.4383 12.3829 14.3757 12.8878 13.962 13.1689C13.8614 13.2372 13.7698 13.3174 13.6761 13.3945C13.594 13.4622 13.5166 13.5305 13.4603 13.622C13.3574 13.7896 13.3525 13.9872 13.4188 14.1693C13.929 15.5714 14.7889 16.6617 16.2001 17.2489C16.4259 17.3428 16.6527 17.4522 16.9129 17.4219C17.3486 17.371 17.4897 16.8931 17.795 16.6434C18.0934 16.3994 18.4747 16.3962 18.7962 16.5996C19.1177 16.8031 19.4294 17.0215 19.7392 17.2423C20.0433 17.459 20.3461 17.671 20.6266 17.918C20.8963 18.1555 20.9892 18.4672 20.8373 18.7895C20.5593 19.3799 20.1547 19.8711 19.571 20.1846C19.4062 20.273 19.2094 20.3016 19.0235 20.3589C18.8098 20.2939 19.2094 20.3016 19.0235 20.3589Z" fill="white"/>
<path d="M16.0052 9.23154C18.5692 9.30337 20.6751 11.0049 21.1263 13.5398C21.2032 13.9717 21.2306 14.4133 21.2648 14.8516C21.2792 15.036 21.1748 15.2112 20.9758 15.2136C20.7703 15.216 20.6778 15.0441 20.6645 14.8598C20.6381 14.4949 20.6197 14.1285 20.5695 13.7666C20.304 11.8567 18.781 10.2765 16.8799 9.93743C16.5938 9.88638 16.301 9.87297 16.0113 9.84256C15.8281 9.82332 15.5881 9.81223 15.5475 9.58452C15.5135 9.3936 15.6746 9.24158 15.8564 9.23182C15.9059 9.22908 15.9556 9.23132 16.0052 9.23154C18.5692 9.30337 15.9556 9.23132 16.0052 9.23154Z" fill="white"/>
<path d="M19.9015 14.2827C19.8973 14.3147 19.895 14.39 19.8763 14.4609C19.8082 14.7183 19.418 14.7505 19.3281 14.4907C19.3015 14.4136 19.2975 14.3259 19.2973 14.243C19.2964 13.6999 19.1784 13.1574 18.9045 12.6849C18.623 12.1993 18.1929 11.791 17.6885 11.544C17.3835 11.3947 17.0536 11.3018 16.7193 11.2465C16.5732 11.2224 16.4255 11.2077 16.2787 11.1873C16.1008 11.1625 16.0058 11.0491 16.0142 10.8738C16.0221 10.7095 16.1421 10.5913 16.3212 10.6014C16.9096 10.6349 17.4779 10.762 18.001 11.039C19.0648 11.6024 19.6725 12.4916 19.8499 13.679C19.8579 13.7328 19.8708 13.786 19.8749 13.84C19.8849 13.9734 19.8912 14.1069 19.9015 14.2827C19.8973 14.3147 19.8912 14.1069 19.9015 14.2827Z" fill="white"/>
<path d="M18.3069 14.2206C18.0923 14.2245 17.9775 14.1057 17.9554 13.909C17.94 13.7719 17.9279 13.633 17.8952 13.4995C17.8307 13.2368 17.6911 12.9933 17.47 12.8323C17.3657 12.7562 17.2474 12.7008 17.1236 12.6651C16.9662 12.6197 16.8028 12.6321 16.6458 12.5937C16.4753 12.5519 16.381 12.4138 16.4078 12.2539C16.4322 12.1083 16.5738 11.9947 16.7329 12.0062C17.7269 12.078 18.4374 12.5919 18.5388 13.7621C18.5459 13.8447 18.5544 13.932 18.536 14.011C18.5047 14.1462 18.4045 14.214 18.3069 14.2206C18.0923 14.2245 18.4045 14.214 18.3069 14.2206Z" fill="white"/>
</svg>

<svg width="32" height="32" fill="none" xmlns="http://www.w3.org/2000/svg"><path d="M29 0H3a3 3 0 00-3 3v26a3 3 0 003 3h26a3 3 0 003-3V3a3 3 0 00-3-3z" fill="#7D3DAF"/><path d="M26.12 10.315l-.006-.025c-.512-2.067-2.816-4.284-4.932-4.746l-.024-.004a27.407 27.407 0 00-10.317 0l-.024.004c-2.116.462-4.42 2.68-4.932 4.746l-.006.025a20.192 20.192 0 000 8.698l.006.026c.49 1.978 2.623 4.094 4.66 4.675v2.307c0 .835 1.018 1.245 1.596.643l2.337-2.43a27.195 27.195 0 006.68-.445l.024-.005c2.116-.461 4.42-2.679 4.932-4.745l.006-.026a20.194 20.194 0 000-8.698zm-1.85 8.28c-.34 1.348-2.09 3.024-3.48 3.334a25.548 25.548 0 01-5.488.443.13.13 0 00-.097.04l-1.707 1.751-1.815 1.863a.213.213 0 01-.365-.147v-3.821a.132.132 0 00-.107-.129h-.002c-1.39-.31-3.139-1.986-3.481-3.334a18.324 18.324 0 010-7.862C8.07 9.385 9.82 7.71 11.209 7.4a25.526 25.526 0 019.58 0c1.391.31 3.14 1.986 3.481 3.334.57 2.609.57 5.253 0 7.862z" fill="#fff"/><path d="M19.023 20.359c-.213-.065-.417-.109-.606-.187-1.96-.813-3.764-1.863-5.193-3.47-.813-.915-1.449-1.948-1.986-3.04-.255-.519-.47-1.057-.69-1.592-.2-.488.095-.992.405-1.36.29-.345.664-.609 1.07-.803.316-.152.627-.065.858.203.5.58.958 1.188 1.329 1.86.228.413.166.918-.248 1.199-.1.068-.192.148-.286.226a.94.94 0 00-.216.227.623.623 0 00-.041.547c.51 1.402 1.37 2.493 2.781 3.08.226.094.453.203.713.173.436-.051.577-.529.882-.779.298-.244.68-.247 1.001-.043.322.203.633.421.943.642.304.217.607.429.888.676.27.238.362.55.21.872-.278.59-.682 1.081-1.266 1.395-.165.088-.362.117-.548.174-.213-.065.186-.057 0 0zM16.005 9.232c2.564.071 4.67 1.773 5.121 4.308.077.432.105.873.139 1.312.014.184-.09.36-.29.362-.205.002-.297-.17-.31-.354-.027-.365-.045-.731-.095-1.093-.266-1.91-1.789-3.49-3.69-3.83-.286-.05-.579-.064-.869-.094-.183-.02-.423-.03-.463-.258-.034-.191.127-.343.308-.353.05-.003.1 0 .15 0 2.563.071-.05 0 0 0z" fill="#fff"/><path d="M19.901 14.283c-.004.032-.006.107-.025.178-.068.257-.458.29-.548.03a.777.777 0 01-.03-.248c-.002-.543-.12-1.086-.393-1.558a2.9 2.9 0 00-1.216-1.141 3.498 3.498 0 00-.97-.298c-.146-.024-.294-.038-.44-.059-.178-.024-.273-.138-.265-.313a.276.276 0 01.307-.273c.589.034 1.157.161 1.68.438 1.064.563 1.671 1.453 1.849 2.64.008.054.02.107.025.161.01.133.016.267.026.443-.004.032-.01-.176 0 0z" fill="#fff"/><path d="M18.307 14.22c-.215.005-.33-.114-.352-.311-.015-.137-.027-.276-.06-.41a1.152 1.152 0 00-.425-.667 1.108 1.108 0 00-.346-.167c-.158-.045-.321-.033-.478-.071-.17-.042-.265-.18-.238-.34a.308.308 0 01.325-.248c.994.072 1.704.586 1.806 1.756.007.083.015.17-.003.249a.256.256 0 01-.23.21c-.214.004.098-.007 0 0z" fill="#fff"/></svg>
